X:1 
T:Gentlemen of High Renown
B:Copper, Bob (1971),A Song for Every Season,William Heinemann Ltd
S:Copper Family Songbook
F:http://www.folkinfo.org/songs
M:5/4    
L:1/8  
K:F
C2 |F2 F2 G2 F2 G2 |A2 A2 B2 c2 d2 |c2 A2 (c2B2) G2 | F4-F4 
w:You gen-tle-men_ of high re-known_ come lis-ten un-_to me_
C2 |F2 F2 G2 F2 G2 |A2 A2 B2 c2 d2 |c2 A2 c2 B2 G2 | F4-F4 
w: That take de-light_ in fox and hou-nds in ev'-ry high_ de-gree_
AB |c2 c2 d2 c2 A2 |c2 c2 c4 C2 |F2 G2 (A2 G2) F2 | C4-C4 
w: A_ sto-ry true_ to you I'll tell con-cern-ing of_ a fox_
C2 |F2 F2 G2 F2 G2 |A2 A2 (B2c2) d2 |c2 A2 c2 (B2G2) | F4-F4  |]
w: In Ox-ford to-wn in Ox-ford-shire_ There lived some migh-_ty hounds *